X:183
T:Bowling Green. VWMLa.183
%%VWML:Anon2-3049-p114-0
F:http://www.vwml.org/record/Anon2/3049/p114
S:Anon. MS, late 18thC, Vaughan Williams Mem. Library
O:England;Yorkshire
Z:vmp/efdss.Simon Wilson. Reviewed PJH 2008.
M:2/4
L:1/8
Q:1/4=140
K:D
f>g ea|fdd2|Bg Af|(e/f/).g/.f/ (a/g/).f/.e/|\
f>g ea|fdd2|B(g/e/) (g/e/)d/c/|d2D2:|
|:"P"[F3A3][FA]|[GB][Bg][Bg][Bg]|\
z[ce][ce][ce]|"^F"d/c/B/A/ G/F/E/D/|\
"P"[F3A3][FA]|[GB][Bg][Bg][Bg]|\
"^F"[d2f2][A2e2]|[F4d4]:|
T:Finale. VWMLa.184, The
R:Jig
S:Anon. MS, late 18thC, Vaughan Williams Mem. Library
O:England;Yorkshire
Z:vmp/efdss.Simon Wilson. Reviewed PJH 2008.
M:6/8
L:1/8
Q:3/8=120
K:D
d2A !turn!F>ED|B2c d3|BgB AfA|G2F !turn!E>DC|\
D2d !turn!c>BA|B2c d2c|Bgf edc|d3 D3:|
|:f2g agf|e2f g3|bag fed|c2d ecA|\
G2b F2a|E2g !turn!f>ed|Bed !turn!c>BA|d3 D3:|
